Obsidian/actions/16s/accept_signal.svg

<svg viewBox="0 0 16 16" xmlns="http://www.w3.org/2000/svg"><path d="m2 2 4.0058594 6-4.0058594 6h1 .2617188 9.7382812 1v-11-1h-10.7421875zm1.9257812 1h9.0742188v10h-9.0703125l3.3359375-5z" fill="#f2f2f2"/></svg>

<svg xmlns="http://www.w3.org/2000/svg" viewBox="0 0 16 16">
  <defs id="defs3051">
    <style type="text/css" id="current-color-scheme">
      .ColorScheme-Text {
        color:#f2f2f2;
      }
      </style>
  </defs>
 <path style="fill:currentColor;fill-opacity:1;stroke:none" 
     d="M 2 2 L 6.0058594 8 L 2 14 L 3 14 L 3.2617188 14 L 13 14 L 14 14 L 14 3 L 14 2 L 3.2578125 2 L 2 2 z M 3.9257812 3 L 13 3 L 13 13 L 3.9296875 13 L 7.265625 8 L 3.9257812 3 z "
     class="ColorScheme-Text"
     />
</svg>
